X: 34586
T: Rising Tide, The
R: jig
M: 6/8
K: Eminor
|:BEE AEE|GEE EDB,|DED DB,D|DED DEG|
BEE AEE|GEE EDB,|DEG ABA|1 GED E2A:|2 GED E2d||
|:e2e edB|d2d ABd|efe edB|dBA ABd|
e2e edB|d2d ABd|edB AGA|1 BED E2d:|2 BED E2A||

